X:347
T:Sheebeg & Sheemore
M:3/4
L:1/8
Q:1/8=150
K:D
de|f3 e d2|d3 e d2|B4 A2|F4 A2|BA Bc d2|e4 de|f4 e2|d4 f2|
B4 e2|A4 d2|F4 E2|D4 f2|B4 e2|A4 dc|d4 c2|d4 de||
f3 e d2|ed ef a2|b4 a2|f3 e d2|e4 a2|f4 e2|d4 B2|A4 BA|
F4 E2|D4 f2|B4 e2|A4 a2|ba gf ed|e2 fe dc|d4 c2|d4 de|
